X: 887
T: Shooting Creek
B: jims roots
M:2/4
L:1/16
Q: 1/4=100
K:D
V:1 
"D"fa3 a2 | abag fefg | a2a2 fedd |[1"A"edBd "D"A2:|[2 "A"edBd "D"A2AB ||
|:"D"d2d2 Jf3a | fed2 edBA | d2d2 fedd |["A"edBd "D"A2AB :| [2 "A"edBd "D"A2|]
% abcbook-tune_id 6298c2876e2c07444b600743


% abcbook-boost 0
% abcbook-tablature 
% abcbook-transpose 
% abcbook-lastupdated 1654178440364
% abcbook-soundfonts 
% abcbook-repeats 1


